assets/images/pipeline.svg

<?xml version="1.0" encoding="UTF-8" standalone="no"?>
<svg
   xmlns:svg="http://www.w3.org/2000/svg"
   xmlns="http://www.w3.org/2000/svg"
   version="1.1">
  <symbol
     id="pipeline"
     viewBox="0 0 67.531387 100">
    <path
       d="m 6.971736,99.999999 c 0,0 0,-3.41765 0,-3.41765 20.913347,0 37.867027,-16.95368 37.867027,-37.867023 0,0 3.417646,0 3.417646,0 0,0 0,-6.972113 0,-6.972113 0,0 -28.981434,0 -28.981434,0 0,0 0,6.972113 0,6.972113 0,0 3.417652,0 3.417652,0 0,8.68243 -7.038457,15.720893 -15.720891,15.720893 0,0 0,-3.41766 0,-3.41766 0,0 -6.971736,0 -6.971736,0 0,0 0,28.98144 0,28.98144 0,0 6.971736,0 6.971736,0" />
    <path
       d="m 60.559649,0 c 0,0 0,3.417649 0,3.417649 -20.913348,0 -37.867024,16.953676 -37.867024,37.867024 0,0 -3.41765,0 -3.41765,0 0,0 0,6.972111 0,6.972111 0,0 28.981434,0 28.981434,0 0,0 0,-6.972111 0,-6.972111 0,0 -3.417653,0 -3.417653,0 0,-8.682435 7.038458,-15.720891 15.720893,-15.720891 0,0 0,3.417651 0,3.417651 0,0 6.971736,0 6.971736,0 0,0 0,-28.981433 0,-28.981433 0,0 -6.971736,0 -6.971736,0" />
  </symbol>
</svg>

<?xml version="1.0" encoding="UTF-8" standalone="no"?>
<svg
   xmlns:svg="http://www.w3.org/2000/svg"
   xmlns="http://www.w3.org/2000/svg"
   version="1.1">
  <symbol
     id="pipeline"
     viewBox="0 0 67.531387 100">
    <path
     d="M6.971736 99.999999C6.971736 99.999999 6.971736 96.582349 6.971736 96.582349C27.885083 96.582349 44.838763 79.628669 44.838763 58.715326C44.838763 58.715326 48.256409 58.715326 48.256409 58.715326C48.256409 58.715326 48.256409 51.743213 48.256409 51.743213C48.256409 51.743213 19.274975 51.743213 19.274975 51.743213C19.274975 51.743213 19.274975 58.715326 19.274975 58.715326C19.274975 58.715326 22.692627 58.715326 22.692627 58.715326C22.692627 67.397756 15.65417 74.436219 6.971736 74.436219C6.971736 74.436219 6.971736 71.018559 6.971736 71.018559C6.971736 71.018559 0.0 71.018559 0.0 71.018559C0.0 71.018559 0.0 99.999999 0.0 99.999999C0.0 99.999999 6.971736 99.999999 6.971736 99.999999M60.559649 0.0C60.559649 0.0 60.559649 3.417649 60.559649 3.417649C39.646301 3.417649 22.692625 20.371325 22.692625 41.284673C22.692625 41.284673 19.274975 41.284673 19.274975 41.284673C19.274975 41.284673 19.274975 48.256784 19.274975 48.256784C19.274975 48.256784 48.256409 48.256784 48.256409 48.256784C48.256409 48.256784 48.256409 41.284673 48.256409 41.284673C48.256409 41.284673 44.838756 41.284673 44.838756 41.284673C44.838756 32.602238 51.877214 25.563782 60.559649 25.563782C60.559649 25.563782 60.559649 28.981433 60.559649 28.981433C60.559649 28.981433 67.531385 28.981433 67.531385 28.981433C67.531385 28.981433 67.531385 0.0 67.531385 0.0C67.531385 0.0 60.559649 0.0 60.559649 0.0"
     style="stroke:none;stroke-width:0.27065982832;stroke-opacity:1;fill:#000000" />
  </symbol>
</svg>
